X:1
T:Les chtaignes avec du cidre doux
C:Thodore Botrel, fichier abc : Bernard Loffet
L:1/8
Q:400
M:2/2
K:G
 z6[d2G,2] | [d2G,,2]G,c [B2G,,2][c2G,2] | [B2D,,2]D,2 [A2D,,2][d2D,2] | [d2G,,2][c2G,2] [B2G,,2][c2G,2] | \
 [d2D,,2]D,2 D,,2[d2D,2] | [d2G,,2]G,c [B2G,,2][c2G,2] | [B2D,,2]D,2 [A2D,,2][d2D,2] | \
 [d2G,,2][c2G,2] [B2G,,2][c2G,2] | [d2D,,2]D,2 D,,2[A2D,2] | [A2A,,2]A,B [A2A,,2][G2G,2] | \
 [F2D,,2]D,2 [D2D,,2][B2D,2] | [A2A,,2][G2E,2] [F2A,,2][E2A,2] | [D2D,,2]D,2 D,,2[D2D,2] | \
 [G2G,,2]G,A [B2G,,2][c2G,2] | [B2E,,2][d2E,2] [d2E,,2][c2E,2] | [B2C,,2]C,2 [A2D,,2]D,2 | \
 [G2G,,2]G,2 G,,4 | \
W:Created with TablEdit http://www.tabledit.com/ by Bernard Loffet
